X:908
T:Bonnie Isle of Whalsay, Da
S:Sessions, records, etc
Z:Nigel Gatherer
M:4/4
L:1/8
K:A
e- | edcA B2 ed | cA A2 BE Ee- | edcA  B2 ed | cABG A3  :|
B  | cde=g fded | cAdc B=G G2  | cde=g fded  | cABG A3
B  | cde=g fded | cAdc B=G G2  | cdef =gage  | dB=GB A3 ||
<end>
<start>
